!!!OTL: Chanty Song (b)
!!!ONM: 57.
**kern
*clefG2
*k[f#]
*G:
*M4/4
*MM80
{4d
4g
4g
4g
=2
4g
4g
4.g
8r}
=3
{4.d
8d
4.d
8d
=4
4.d
8r
4r}
{4d
=5
4g
4g
4g
8g
8g
=6
4g
4g
4.g
8r}
=7
{4.d
8d
4d
4d
=8
2d
2r}
=9
{2b
2a
=10
4g
4e
4d
4r}
=11
{4.d
8d
4d
4d
=12
(4d
2b)}
{8g
8g
=13
8g
8g
8g
8g
2g
=14
8g
8g
8g
8g
8g
8e}
{8d
8e
=15
4g
4e
4d
4e
=16
2g}
{8g
8g
4g
=17
4g
8g
8g
4.g}
{8g
=18
(4g
4e)
4d
4e
=19
2g
2r}
=20
{2b
2a
=21
4g
4e
4.d
8r}
=22
{4.d
8d
4d
4d
=23
(4d
2b)
4r}
==
*-
!!!CNT: Folksongs of Maritime Canada
!!!MRD: 1928///-1932///
!!!OCL: Helen Creighton
!!!YOR: Songs and Ballads from Nova Scotia
!!!PPR: J.M. Dent & Sons, Limited
!!!PPP: Toronto, Canada
!!!PDT: 1932///
!!!reprint: Dover Publications, 1992: ISBN 0-486-21703-5
!!!ENC1: Craig Stuart Sapp (music and bibliographic data)                       
!!!ENC2: Marcus Pearce (phrase markings and key designations)                   
!!!ENC3: Darrell Conklin (phrase markings and key designations)   
!!!END: 2002/04/10/
!!!EEV: 2004/06/05
!!!MPN: Mr. Richard Hartlan
!!!PPG: 115
!!!EFL: 58/152
!!!ARE: Canada; Nova Scotia
!!!verses: 1
!!!VTS: 4032214009
